X:1
T:Moritz Hauptmann 1792 - 1862
T:Gott mein Heil
%%score [ 1 2 3 4 ]
L:1/8
Q:1/4=38
M:2/4
K:D
V:1 treble nm="Sopran"
V:2 treble nm="Alt"
V:3 treble-8 nm="Tenor"
V:4 bass nm="Bass"
V:1
"^Larghetto""^(   = 76)" z4 | z4 | z4 | z4 | z4 | z4 | z4 |[M:2/4] z2!mf! A2- | AA BA | d>A A2 | %10
w: |||||||Du|* bist mei- ne|Hül \- fe,|
"^cresc." d2 e2 |!f!!>(! f4- |!p! f!>)! z F2- | FF GF | A2 A2- | AA!<(! BA!<)! | (d4- | %17
w: Gott, mein|Heil!|* lass,\_\_\_\_\_|\_\_\_ o lass mich|nicht du|* bist mei- ne|Hül-|
"^cresc." d2 c)B | A2!>(! B>A!>)! | A3"^dim." G |"^dolce" F2 A2 |!<(! G2 F2!<)! |!>(! EE F!>)!E | %23
w: * * fe|Gott, mein *|Heil! *|lass, mein|Gott, mein|Heil, o lass mich|
 E2 z2 | z4 | z2 z!mf! A | d>c Bd | g>f ed | c"^cresc."B AB | A2!f! Ad | f3 e | d2 z"^dolce" F | %32
w: nicht!||und|thu- e nicht, und|thu- e nicht die|Hand von mir, die|Hand, nicht die|Hand von|mir, und|
 B>A GF | FE z!p! E | A2 z G | F2 z!mf! A |!<(! d2 z!<)! =c | B2 B2- |"^cresc." BB cd | (e2 ^e2) | %40
w: thu- e nicht die|Hand ab, mein|Gott, von|mir, mein|Gott, und|Heil, du|* mein Gott, mein|Heil! *|
!f![Q:1/4=35] (f2"^poco ritenuto" e)c | A>^A Bc/d/ | d>A A2- |"^dolce" AA!<(! BA!<)! | %44
w: Lass * micht|nicht, mein Gott, mei- ne|Hül- fe, du|* mein Gott, mein|
"^ritard."!>(! A4-!>)![Q:1/4=33][Q:1/4=30][Q:1/4=29] |[Q:1/4=25] !fermata!A4 |] %46
w: Heil.||
V:2
 z4 | z4 |!p! FF!<(! EF!<)! |!>(! A>G!>)! G2 | z4 | z2 G2- | GG"^poco cresc." FG |[M:2/4] B A2 G | %8
w: ||Du bist mei- ne|Hül \- fe,||lass,|* o lass, mein|Gott, * mich|
 F2 z2 | z4 |"^cresc." F2 EB |!f!!>(! ^A3 z!>)! |!p! CC B,C | D2 D2 | EE DE | F2!<(! F2- | %16
w: nicht.||Gott, mein *|Heil!|du bist mei- ne|Hül- fe,|lass, o lass mich|nicht, du|
 F!<)!F GA |"^cresc." (B2 A)G | G2 F2 |!>(! E3 z!>)! |"^dolce" D2!>(! E>D!>)! |!<(! D4- | %22
w: * bist mei- ne|Hül- * fe,|Gott, mein|Heil!|Gott, mein *|Heil!|
!>(! D!<)! D2!>)! D | C2 z2 | z2 z!mf! E | A>G FE | DF B>A | GD G2- | G"^cresc." G2 F | %29
w: * lass micht|nicht!|und|thu- e nicht die|Hand, und thu- e|nicht von mir,|* nicht die|
 E!f! A2 ^G | A2 G2 | F2 z"^dolce" D | G>F ED | DC z!p! C | D2 z E | A,2!mf!!<(! D2- | D!<)!D EF | %37
w: Hand, nicht die|Hand von|mir, und|thu- e nicht die|Hand ab, mein|Gott, von|mir, du|* mein Gott und|
 G2 z A |"^cresc." G2 z G | G3 z |!f! F2 G2 | AF DE/ =F/ | !courtesy!^F2 D"^dolce"F | E2!<(! G2 | %44
w: Heil, mein|Gott, mein|Heil!|Lass mich|nicht, mein Gott, mei- ne|Hül- fe, mein|Gott, mein|
!>(! (G2!<)! F)E!>)! | !fermata!F4 |] %46
w: Gott, * mein|Heil!|
V:3
!p! A2 B>A | A4- |!<(! A4 |!>(! A3!<)! z!>)! |!<(! AA!<)!!>(! cB!>)! | A3 A | %6
w: Gott mein *|Heil!|||lass, o lass mein|Gott, mich|
 A2"^poco cresc." (A2- |[M:2/4][K:treble-8] A2 B)c | d2 z2 | z4 |"^cresc." A2 B2 | %11
w: nicht, lass\_\_\_\_\_|* * mich|nicht.||Gott, mein|
!f!!>(! c3 z!>)! |!p! ^AA ^GA | B2 B2 | cc Bc | d2!<(! dc!<)! | =c3 c | %17
w: Heil!|du bist mei- ne|ne Hül-|fe, lass, o lass|nicht, du bist|mei- ne|
"^cresc." (B2 !courtesy!^c)d | e2 d2 |!>(! (d2 c)!>)! z |"^dolce" A2 =c2 |!<(! B2 A2!<)! | %22
w: Hül- * fe,|Gott, mein|Heil! *|lass, mein|Gott, mein|
!>(! ^G3 G!>)! | A2 z!mf! A | c>B AG | FA dc | B>A GB | eB z B | e>"^cresc."d cd | c2!f! dd | %30
w: Heil, mich|nicht! und|thu- e nicht die|Hand von mir, und|thu- e nicht die|Hand ab, und|thu- e nicht die|Hand, nicht die|
 d2 c2 | d2 z"^dolce" d | G>A _BB | AA z!p! A | A2 z A | A2 z!mf!!<(! F | G2!<)! z A | B>c d^d | %38
w: Hand von|mir, und|thu- e nicht die|Hand ab, mein|Gott, von|mir, mein|Gott, und|thu- e nicht die|
"^cresc." eG z _B | A3 z |!f! (A2 c)e | d=c BB/B/ | A2 A"^dolce"d | d2!<(! ce!<)! | %44
w: Hand ab, mein|Heil!|Lass * mich|nicht, mein Gott, mei- ne|Hül- fe, mein|Gott * mein|
!>(! (e2 d) c/B/!>)! | !fermata!A4 |] %46
w: Gott, * mein *|Heil!|
V:4
 z4 | z4 |!p! D,D,!<(! C,D,!<)! |!>(! F,>E,!>)! E,2 | z4 | z2 E,2- | E,E,"^poco cresc." D,E, | %7
w: ||Du bist mei- ne|Hül \- fe,||lass,|* o lass, mein|
[M:2/4] (G, F,2) E, | D,2 z2 | z4 |"^cresc." D,2 G,2 |!f!!>(! F,3 z!>)! | z4 | z4 | z4 | z4 | %16
w: Gott, * mich|nicht||Gott, mein|Heil!|||||
!mf! D,D, E,F, |"^cresc." (G,2 A,)B, | C2 D2 |!>(! A,3 z!>)! |"^dolce" D,2 F,,2 | %21
w: Du bist mei- ne|Hül- * fe,|Gott, mein|Heil!|lass, mein|
!<(! G,,2 A,,2!<)! |!>(! B,,3 E,,!>)! | A,,2 z2 | z4 | z4 | z!mf! D,>G,F, | E,!<(!G, C,E, | %28
w: Gott, mein|Heil, micht|nicht!|||und thu- e|nicht die Hand von|
 A,,2!<)! z!f! D, | A,>G, F,B, | A,2 ^A,2 | B,2 z"^dolce" B, | E,>F, G,^G, | A,A, z!p! G, | %34
w: mir, und|thu- e nicht die|Hand von|mir, und|thu- e nicht die|Hand ab, mein|
 F,2 z C, | D,2 z!mf!!<(! ^B,, | B,,2!<)! z D, | G,2 z F, |"^cresc." E,2 z D, | C,3 z | %40
w: Gott, von|mir, mein|Gott, und|Heil, mein|Gott, mein|Heil!|
!f! D,2 E,2 | F,D, G,^G,/G,/ | A,2 F,"^dolce"D, | A,,3!<(! A,, |!>(! D,4-!<)!!>)! | !fermata!D,4 |] %46
w: Lass mich|nicht, mein Gott, mei- ne|Hül- fe, mein|Gott, mein|Heil!||

